X: 38919
T: Supernose
R: reel
M: 4/4
K: Amajor
|:E2 ~E2 FECE|EFAc cBAF|E2 ~E2 FECE|d2 cd BAFA|
E2 ~E2 FECE|EFAc B2 cd|e2 cA BcBA|1 E3c cBAF:|2 E3c cBcd||
|:e2 cA Bcea|a2ec BAcd|e2 cA Bcea|a2 ec d2 cd|
[1 e2 cA BcBA|EFAc B2 cd|c2 BA BcBA|E3c cBcd:|
[2 e2 cA BcBA|E2 ~E2 FECE|fece aece|E3c cBAF||

